X:1
T:Title
%%score { ( 1 4 ) | ( 2 3 ) }
L:1/8
M:9/8
K:Eb
V:1 treble nm="Grand Piano"
V:4 treble 
V:2 treble 
V:3 treble 
V:1
 z3 z3[Q:1/4=108] BBB | [B,GB]3 [B,EG]3 c2 B | [GB]3 A3 AGA | [FA]3 F3 B2 A | G6 BBB | %5
 [GB]3 G3 e2 d | [Bd]3 c3 AAA | [FA]3 [DF]3 [GB]2 [FA] |[M:3/4] G6 |[M:3/8] GGG | %10
[M:9/8] [Ec]3 d3 z3 | [CEc]6 edc | [GB]3 [EG]3 z3 | [B,EG]6 edc | [GB]3 [EG]3 z3 | %15
[M:3/4] [G,B,E]6 |] %16
V:2
 z3 z3 GGG | E,3 E,3[K:treble] A2 G | z3[K:treble] F3 F=EF | z3 D3[K:treble] G2 F | [E,B,E]6 GGG | %5
 z3 E3[K:treble] c2 B | z3[K:treble] A3 FFF | [B,,F,]3 [B,,A,]3 [B,,B,]2 [B,,B,] | %8
[M:3/4] [E,B,E]6 |[M:3/8] EEE |[M:9/8] C,C,C,[K:treble] F2- [G,F] [G,CG]2 [G,=B,F] | %11
 C,6[K:treble] cBA | E,E,E, E,2 E, B,,2 B,, | E,6[K:treble] cBA | E,E,E, E,2 E, B,,2 B,, | %15
[M:3/4] E,6 |] %16
V:3
 x9 | x6[K:treble] x3 | [B,,B,]6[K:treble] z3 | [B,,B,]6[K:treble] z3 | x9 | [C,B,]6[K:treble] z3 | %6
 [A,,A,]6[K:treble] z3 | x9 |[M:3/4] x6 |[M:3/8] x3 |[M:9/8] z3[K:treble] .[G,=B,]3 z3 | %11
 x6[K:treble] x3 | x9 | x6[K:treble] x3 | x9 |[M:3/4] x6 |] %16
V:4
 x9 | x9 | x9 | x9 | x9 | x9 | x9 | x9 |[M:3/4] x6 |[M:3/8] x3 |[M:9/8] CCC z2 =B, e2 d | x9 | %12
 EEE B,2 B, [B,DF]2 [B,FA] | x9 | EEE B,2 B, [B,EG]2 [A,DF] |[M:3/4] x6 |] %16

